symbols/de/ne2-dv301-reduced-distance.svg

<?xml version="1.0" encoding="UTF-8" standalone="no"?>
<svg
   width="10.177"
   height="16"
   viewBox="0 0 10.177 16"
   version="1.1"
   id="svg4"
   sodipodi:docname="ne2-dv301-reduced-distance.svg"
   inkscape:version="1.4 (e7c3feb100, 2024-10-09)"
   xmlns:inkscape="http://www.inkscape.org/namespaces/inkscape"
   xmlns:sodipodi="http://sodipodi.sourceforge.net/DTD/sodipodi-0.dtd"
   xmlns="http://www.w3.org/2000/svg"
   xmlns:svg="http://www.w3.org/2000/svg">
  <defs
     id="defs4" />
  <sodipodi:namedview
     id="namedview4"
     pagecolor="#ffffff"
     bordercolor="#999999"
     borderopacity="1"
     inkscape:showpageshadow="0"
     inkscape:pageopacity="0"
     inkscape:pagecheckerboard="0"
     inkscape:deskcolor="#d1d1d1"
     inkscape:zoom="27.366667"
     inkscape:cx="-1.9366626"
     inkscape:cy="7.2898904"
     inkscape:window-width="1920"
     inkscape:window-height="1008"
     inkscape:window-x="1920"
     inkscape:window-y="0"
     inkscape:window-maximized="1"
     inkscape:current-layer="svg4" />
  <path
     fill-rule="nonzero"
     fill="#ffffff"
     fill-opacity="1"
     stroke-width="0.831"
     stroke-linecap="round"
     stroke-linejoin="round"
     stroke="#000000"
     stroke-opacity="1"
     stroke-miterlimit="4"
     d="M 0.41655666,0.43679777 H 9.7615002 V 15.543693 H 0.41655666 Z m 0,0"
     id="path1" />
  <path
     fill-rule="nonzero"
     fill="#000000"
     fill-opacity="1"
     stroke-width="0.0255919"
     stroke-linecap="square"
     stroke-linejoin="round"
     stroke="#000000"
     stroke-opacity="0.537255"
     stroke-miterlimit="3.8636"
     d="m 5.0864169,5.1294398 c -1.5831826,0 -2.8663938,1.2873772 -2.8663938,2.8705597 0,1.5831832 1.2832112,2.8705605 2.8663938,2.8705605 1.587349,0 2.8705601,-1.2873773 2.8705601,-2.8705605 0,-1.5831825 -1.2832111,-2.8705597 -2.8705601,-2.8705597 z m 0,0.7165984 c 1.1915533,0 2.1539618,0.9665745 2.1539618,2.1539613 0,1.1873875 -0.9624085,2.1539615 -2.1539618,2.1539615 -1.1873869,0 -2.1497953,-0.966574 -2.1497953,-2.1539615 0,-1.1873868 0.9624084,-2.1539613 2.1497953,-2.1539613 z m 0,0"
     id="path2" />
  <path
     fill="none"
     stroke-width="1.662"
     stroke-linecap="butt"
     stroke-linejoin="miter"
     stroke="#000000"
     stroke-opacity="1"
     stroke-miterlimit="4"
     d="M 1.3430336,0.43263169 4.3677457,5.5529776 M 5.684287,5.6029726 8.84232,0.48679274"
     id="path3" />
  <path
     fill="none"
     stroke-width="1.662"
     stroke-linecap="butt"
     stroke-linejoin="miter"
     stroke="#000000"
     stroke-opacity="1"
     stroke-miterlimit="4"
     d="m 1.3431884,15.577024 3.0247121,-5.124513 m 1.3165413,-0.04583 3.158033,5.112013"
     id="path4" />
</svg>

<?xml version="1.0" encoding="UTF-8"?>
<svg xmlns="http://www.w3.org/2000/svg" xmlns:xlink="http://www.w3.org/1999/xlink" width="10.177" height="16" viewBox="0 0 10.177 16">
<path fill-rule="nonzero" fill="rgb(100%, 100%, 100%)" fill-opacity="1" stroke-width="0.831" stroke-linecap="round" stroke-linejoin="round" stroke="rgb(0%, 0%, 0%)" stroke-opacity="1" stroke-miterlimit="4" d="M 0.417969 0.4375 L 9.761719 0.4375 L 9.761719 15.542969 L 0.417969 15.542969 Z M 0.417969 0.4375 "/>
<path fill-rule="nonzero" fill="rgb(0%, 0%, 0%)" fill-opacity="1" stroke-width="0.0255919" stroke-linecap="square" stroke-linejoin="round" stroke="rgb(0%, 0%, 0%)" stroke-opacity="0.537255" stroke-miterlimit="3.8636" d="M 5.085938 5.128906 C 3.503906 5.128906 2.21875 6.417969 2.21875 8 C 2.21875 9.582031 3.503906 10.871094 5.085938 10.871094 C 6.671875 10.871094 7.957031 9.582031 7.957031 8 C 7.957031 6.417969 6.671875 5.128906 5.085938 5.128906 Z M 5.085938 5.847656 C 6.277344 5.847656 7.242188 6.8125 7.242188 8 C 7.242188 9.1875 6.277344 10.152344 5.085938 10.152344 C 3.898438 10.152344 2.9375 9.1875 2.9375 8 C 2.9375 6.8125 3.898438 5.847656 5.085938 5.847656 Z M 5.085938 5.847656 L 5.085938 5.847656 M 5.085938 5.847656 "/>
<path fill="none" stroke-width="1.662" stroke-linecap="butt" stroke-linejoin="miter" stroke="rgb(0%, 0%, 0%)" stroke-opacity="1" stroke-miterlimit="4" d="M 1.34375 0.433594 L 4.367188 5.554688 M 5.683594 5.601562 L 8.84375 0.488281 "/>
<path fill="none" stroke-width="1.662" stroke-linecap="butt" stroke-linejoin="miter" stroke="rgb(0%, 0%, 0%)" stroke-opacity="1" stroke-miterlimit="4" d="M 1.34375 15.578125 L 4.367188 10.453125 M 5.683594 10.40625 L 8.84375 15.519531 "/>
</svg>
